X:1
T:Brighton (Wesley), CM
T:Brighton (Wesley), CM
T:Samuel Sebastian Wesley, 1864
T:Public Domain Courtesy of the Cyber Hymnal™
C:Samuel Sebastian Wesley, 1864
Z:Public Domain
Z:Courtesy of the Cyber Hymnal™
%%score ( 1 2 ) ( 3 4 )
L:1/8
Q:1/4=110
M:4/4
K:F
V:1 treble 
V:2 treble 
V:3 bass 
V:4 bass 
V:1
 F2 | [FA]2 [Fc]2 [Dd]2 [Ec]2 | [FB]2 [GB]2 [FA]2 [Ec]2 | [CF]2 [CE]2 (FG) A2 | [EG]6 [Gc]2 | %5
 [Ad]2 [Ge]2 [Ff]2 [Ae]2 | [Ad]2 d2 [Ec]2 [Fc]2 | [FB]2 [FA]2 [FG]2 [EG]2 | [CF]6 |] %9
V:2
 F2 | x8 | x8 | x4 F2 (CD) | x8 | x8 | x2 (GF) x4 | x8 | x6 |] %9
V:3
 [F,A,]2 | [F,C]2 [A,,C]2 [B,,B,]2 [C,A,]2 | [D,D]2 [E,C]2 [F,C]2 [C,C]2 | %3
 [A,,C]2 [C,G,]2 [A,,C]2 (A,=B,) | [C,C]6 [CE]2 | [CF]2 [B,C]2 [A,C]2 C2 | %6
 [F,C]2 [G,=B,]2 [C,C]2 [A,,C]2 | [B,,D]2 [F,C]2 [B,,D]2 [C,C]2 | [F,A,]6 |] %9
V:4
 x2 | x8 | x8 | x6 F,,2 | x8 | x6 (A,G,) | x8 | x8 | x6 |] %9

